assets/Dog/Flat/dog_flat.svg

<svg width="32" height="32" viewBox="0 0 32 32" fill="none" xmlns="http://www.w3.org/2000/svg">
<path d="M3.75 16C3.34 16 3 15.66 3 15.25V15.02C3 14.56 3.37 14.2 3.82 14.2H4.5V15.25C4.5 15.66 4.16 16 3.75 16Z" fill="#F8312F"/>
<path d="M15.54 21H12.54L14 29.74C14.03 29.89 14.16 30 14.31 30H16.75C16.9 30 17.02 29.86 17 29.71L15.54 21Z" fill="#D3883E"/>
<path d="M19.95 21H22.95L20.98 29.7597C20.95 29.8999 20.83 30 20.68 30H18.24C18.08 30 17.96 29.8598 18 29.6997L19.95 21Z" fill="#D3883E"/>
<path d="M19.05 9.72005C19.44 7.01005 21.79 4.94005 24.62 5.00005C27.53 5.06005 29.92 7.43005 30 10.3401C30.0652 12.5738 28.7946 14.5182 26.9279 15.4372C26.9752 15.6906 27 15.9522 27 16.22V21.5C27 21.61 27.06 21.71 27.14 21.76L28.31 22.54C28.74 22.83 29 23.32 29.01 23.84V29.69C29.01 29.86 28.87 30 28.7 30H26.32C26.15 30 26.01 29.86 26.01 29.69V26.21C26.01 26.08 25.93 25.97 25.81 25.92L23.36 24.94C21.95 24.38 21.03 23.03 21 21.52L16.84 21L12 22V23.17C12 24.74 10.74 26 9.17 26H8V26.38C8 26.72 7.72 27 7.38 27H5.63C5.28 27 5 26.72 5 26.38V25.71C5 24.21 6.21 23 7.7 23H9V21.97C7.72 20.71 7 18.99 7 17.19V15.31C7 15.14 6.86 15 6.69 15H5C3.34 15 2 13.66 2 12V11.76C2 11.34 2.34 11 2.76 11H4.27C4.7 11 5.08 10.71 5.18 10.29L5.27 9.93C5.7 8.21 7.25 7 9.02 7H10.96C11.54 7 12.07 7.36 12.28 7.9L13.53 11.02C13.5509 11.0715 13.5731 11.1294 13.5971 11.192C13.848 11.8473 14.2983 13.0234 15.64 12.85L22.46 12.01C23.9265 11.8963 25.264 12.5457 26.1015 13.613C27.2804 13.0043 28.0721 11.7456 28 10.3101C27.9 8.52005 26.45 7.08005 24.67 7.00005C23.24 6.93005 21.99 7.72005 21.39 8.90005C21.04 9.58005 20.32 10.0001 19.56 10.0001H19.3C19.15 10.0001 19.03 9.87005 19.05 9.72005Z" fill="#F3AD61"/>
<path d="M12 22V20.01L19.47 20C20.32 20 21 20.6866 21 21.5224C20.35 21.8308 19.61 22 18.84 22H12Z" fill="#FFDEA7"/>
<path d="M7 11.34C7 11.61 7.22 11.84 7.5 11.84C7.78 11.84 8 11.61 8 11.34V10.77C8 10.49 7.78 10.27 7.5 10.27C7.22 10.27 7 10.49 7 10.77V11.34Z" fill="#212121"/>
<path d="M2.75 12.5H3.25C3.66 12.5 4 12.16 4 11.75C4 11.34 3.66 11 3.25 11H2.75C2.34 11 2 11.34 2 11.75C2 12.16 2.34 12.5 2.75 12.5Z" fill="#212121"/>
<path d="M9 7H12.56C13.29 7 13.83 7.69 13.65 8.4L13.05 10.79C12.88 11.5 12.24 12 11.5 12C10.77 12 10.13 11.5 9.95 10.79L9 7Z" fill="#D3883E"/>
</svg>

<svg xmlns="http://www.w3.org/2000/svg" width="32" height="32" fill="none"><path fill="#F8312F" d="M3.75 16c-.41 0-.75-.34-.75-.75v-.23c0-.46.37-.82.82-.82h.68v1.05c0 .41-.34.75-.75.75Z"/><path fill="#D3883E" d="M15.54 21h-3L14 29.74c.03.15.16.26.31.26h2.44c.15 0 .27-.14.25-.29L15.54 21ZM19.95 21h3l-1.97 8.76c-.03.14-.15.24-.3.24h-2.44a.24.24 0 0 1-.24-.3l1.95-8.7Z"/><path fill="#F3AD61" d="M19.05 9.72A5.506 5.506 0 0 1 24.62 5c2.91.06 5.3 2.43 5.38 5.34a5.496 5.496 0 0 1-3.072 5.097c.047.254.072.515.072.783v5.28c0 .11.06.21.14.26l1.17.78c.43.29.69.78.7 1.3v5.85c0 .17-.14.31-.31.31h-2.38c-.17 0-.31-.14-.31-.31v-3.48c0-.13-.08-.24-.2-.29l-2.45-.98A3.75 3.75 0 0 1 21 21.52L16.84 21 12 22v1.17C12 24.74 10.74 26 9.17 26H8v.38c0 .34-.28.62-.62.62H5.63c-.35 0-.63-.28-.63-.62v-.67C5 24.21 6.21 23 7.7 23H9v-1.03c-1.28-1.26-2-2.98-2-4.78v-1.88c0-.17-.14-.31-.31-.31H5c-1.66 0-3-1.34-3-3v-.24c0-.42.34-.76.76-.76h1.51c.43 0 .81-.29.91-.71l.09-.36A3.871 3.871 0 0 1 9.02 7h1.94c.58 0 1.11.36 1.32.9l1.25 3.12.067.172c.251.655.701 1.831 2.043 1.658l6.82-.84a4.204 4.204 0 0 1 3.642 1.603A3.512 3.512 0 0 0 28 10.31c-.1-1.79-1.55-3.23-3.33-3.31-1.43-.07-2.68.72-3.28 1.9-.35.68-1.07 1.1-1.83 1.1h-.26a.25.25 0 0 1-.25-.28Z"/><path fill="#FFDEA7" d="M12 22v-1.99l7.47-.01c.85 0 1.53.687 1.53 1.522-.65.309-1.39.478-2.16.478H12Z"/><path fill="#212121" d="M7 11.34c0 .27.22.5.5.5s.5-.23.5-.5v-.57c0-.28-.22-.5-.5-.5s-.5.22-.5.5v.57ZM2.75 12.5h.5c.41 0 .75-.34.75-.75S3.66 11 3.25 11h-.5c-.41 0-.75.34-.75.75s.34.75.75.75Z"/><path fill="#D3883E" d="M9 7h3.56c.73 0 1.27.69 1.09 1.4l-.6 2.39c-.17.71-.81 1.21-1.55 1.21-.73 0-1.37-.5-1.55-1.21L9 7Z"/></svg>
